X: 196
T: Nianqing de pengyou
L: 1/16
M: 2/4
K: G
d d d2 d B A B [I:setbarnb 1]| 
d4e d d2 | 
B4B> A A2 | 
G8- | 
G8 | 
A2 A2 d2 e2 | 
d4B d B A | 
d4B> A B G | 
A4d A B2 | 
G2 A2 G E E2 | 
D8- | 
D8 | 
A2 A2 B2 B A | 
G6A B | 
A B d2 e d d2 | 
B d B AB4 | 
d2 d2 A2 B A | 
G4G> E E A | 
G4G G z2 | 
D2> E2 A2 d2 | 
B4B> A A2 | 
G8- | 
G8 |]

@@@ Tune index: 8864
